icon-svg/pixelwatch.svg

<svg xmlns="http://www.w3.org/2000/svg" viewBox="0 0 24 24"><path fill="#44739e" d="M11.682 11.56v.892h1.525a1.593 1.593 0 1 1-.381-1.55l.641-.618a2.483 2.483 0 1 0 .655 2.154h.078v-.878Zm.019-5.428a5.869 5.869 0 1 0 5.864 5.87 5.875 5.875 0 0 0-5.864-5.87m0 10.397a4.53 4.53 0 1 1 4.524-4.527 4.535 4.535 0 0 1-4.524 4.529Zm6.026-5.311a3 3 0 0 0-.111.784 3 3 0 0 0 .11.783c.269-.036.448-.116.448-.19v-1.188c0-.073-.175-.154-.447-.189M15.285 6.79a5 5 0 0 1-.223-.622 21 21 0 0 1-.4-3.56 6.5 6.5 0 0 0-2.961-.603h-.022a6.44 6.44 0 0 0-2.947.588 21 21 0 0 1-.4 3.561 5 5 0 0 1-.231.643 6.32 6.32 0 0 1 7.186-.007ZM8.108 17.213a5 5 0 0 1 .222.622 21 21 0 0 1 .4 3.56 6.5 6.5 0 0 0 2.969.6h.023a6.45 6.45 0 0 0 2.947-.588 21 21 0 0 1 .4-3.56 5 5 0 0 1 .231-.643 6.32 6.32 0 0 1-7.185.006Z"/></svg>

<?xml version="1.0" encoding="UTF-8"?>
<svg width="24px" fill="#44739e" height="24px" viewBox="0 0 24 24" version="1.1" xmlns="http://www.w3.org/2000/svg" xmlns:xlink="http://www.w3.org/1999/xlink">
            <path d="m 11.681,11.558 v 0.893 h 1.526 A 1.594,1.594 0 1 1 12.826,10.9 l 0.641,-0.618 a 2.484,2.484 0 1 0 0.655,2.155 H 14.2 V 11.558 Z M 11.7,6.129 A 5.871,5.871 0 1 0 17.566,12 5.877,5.877 0 0 0 11.7,6.129 Z m 0,10.4 A 4.531,4.531 0 1 1 16.226,12 4.536,4.536 0 0 1 11.7,16.531 Z m 6.028,-5.313 A 2.889,2.889 0 0 0 17.617,12 a 2.855,2.855 0 0 0 0.11,0.784 c 0.269,-0.036 0.448,-0.116 0.448,-0.19 v -1.189 c 0,-0.073 -0.175,-0.154 -0.447,-0.189 z M 15.285,6.787 A 4.8,4.8 0 0 1 15.062,6.165 20.942,20.942 0 0 1 14.662,2.603 6.479,6.479 0 0 0 11.7,2 H 11.678 A 6.442,6.442 0 0 0 8.73,2.588 20.875,20.875 0 0 1 8.33,6.151 4.939,4.939 0 0 1 8.099,6.794 6.319,6.319 0 0 1 15.287,6.787 Z M 8.106,17.213 a 4.756,4.756 0 0 1 0.222,0.622 20.866,20.866 0 0 1 0.4,3.562 6.477,6.477 0 0 0 2.97,0.6 h 0.023 a 6.447,6.447 0 0 0 2.948,-0.588 20.932,20.932 0 0 1 0.4,-3.562 5.035,5.035 0 0 1 0.231,-0.643 6.316,6.316 0 0 1 -7.187,0.006 z"/>

</svg>
